X:34
T: Es fliegen zwei Tauben wohl ueber den Rhein,
N: D0035
O: Europa, Mitteleuropa, Lothringen, Weiler
N: Inzipit = Variante zum Lied, beides Varianten zu Lied D0032
R: Liebes - Lied
M: 3/4
L: 1/8
K: G
G2 | d2d2c2 | d2d2c2 | d2d2c2 | d6- | d2z2
d2 | G3A_B2 | c2_B2A2 | G2G2F2 | G6- | G2z2
D2 | G2G2A2 | G2G2D2 | =f2G2f2 | D6- | D2z2
G2 | d2d2c2 | d2d2c2 | d2d2c2 | d6- | d2z2
d2 | G3A_B2 | c2_B2A2 | G2G2F2 | G6- | G2z2

@@@ Tune index: 2556
